X:375
T:the Devil's Dead
A:Wyresdale, Lancashire
B:H.S.J. Jackson, 1823
L:1/8
M:C
O:England
Z:Richard Robinson 
%%RRN:The first part of this contains a lot of guesswork; see mss.
%%TUNEURL: http://www.leeds.ac.uk/music/Info/RRTuneBk/gettune/00000e25.html
%%ID:00000e25
K:A
e | \
cAec dBfd | cAec e/f/gae | cAec dBfd | cA c/d/e f2e2 ::
g | \
afec dBBg | agae gfeg | afec dBgd | cA (c/d/)e f2 e2 ::
%page:45
